src/assets/images/icons/map.svg

<svg xmlns="http://www.w3.org/2000/svg" fill="none" viewBox="0 0 24 24"><path stroke="#181D27" stroke-linecap="round" stroke-linejoin="round" stroke-width="2" d="m8 18-7 4V6l7-4m0 16 8 4m-8-4V2m8 20 7-4V2l-7 4m0 16V6m0 0L8 2"/></svg>

<svg width="24" height="24" viewBox="0 0 24 24" fill="none" xmlns="http://www.w3.org/2000/svg">
<path d="M8 18L1 22V6L8 2M8 18L16 22M8 18V2M16 22L23 18V2L16 6M16 22V6M16 6L8 2" stroke="#181D27" stroke-width="2" stroke-linecap="round" stroke-linejoin="round"/>
</svg>
